X:8
T:No.62 Con Cassidy's Waltz
C:waltz
M:3/4
L:1/8
K:G
d2||B2ddd2|A2ddd2|Gc BA GE|(3DEDB,3D|
E2C2E2|A3G FA|G2F2G2|e2d3c|
B2ddd2|A2ddd2|Gc BA GE|(3DEDB,3D|
E2C2E2|A2B3d|c2E2F2|[1G4d2:|[2G4ga||
g2f2g^g|a4gf|e2^d2e2|g4fe|
d2BdB2|g2Bc dB|c2AB cA|B4ga|
g2f2g^g|a4gf|e2^d2e2|g2a3g|
f2g3f|f2e2Bd|c2E2F2|G4z2||
Å@
